.local/share/icons/Gruvbox-Plus-Dark/mimetypes/scalable/application-certificate.svg

<svg width="256" height="256" fill="none" version="1.1" viewBox="0 0 256 256" xmlns="http://www.w3.org/2000/svg">
  <path d="m55.08 15h100.5l60.4 60.15 2e-3 148.9c0 8.911-7.262 16.13-16.17 16.13h-144.8c-8.91 0-16.08-7.174-16.08-16.08v-193c0-8.91 7.173-16.08 16.08-16.08h1e-4z" fill="#ebdbb2"/>
  <path d="m155.6 22.98h-100.5c-4.504 0-8.105 3.601-8.105 8.105v193c0 4.504 3.601 8.105 8.105 8.105h144.8c4.533 0 8.194-3.674 8.194-8.149v-148.9l-52.42-52.17zm-1e-3 -7.979h-100.5c-8.91 0-16.08 7.173-16.08 16.08v193c0 8.91 7.173 16.08 16.08 16.08h144.8c8.911 0 16.17-7.218 16.17-16.13l-2e-3 -148.9-60.4-60.15z" clip-rule="evenodd" fill="url(#paint0_linear)" fill-rule="evenodd"/>
  <path d="m109.2 123.7h40.39v62.61c0 1.672-1.054 2.174-2.353 1.121l-18.08-14.66-17.63 14.64c-1.286 1.068-2.33 0.577-2.33-1.095v-62.61z" fill="url(#paint1_linear)"/>
  <path d="m128.4 68c-0.923-0.0062-1.82 0.3091-2.537 0.8917l-6.15 4.977c-0.145 0.1193-0.314 0.2062-0.496 0.255-0.182 0.0487-0.372 0.0582-0.557 0.0278l-7.82-1.242c-0.911-0.1392-1.842 0.0362-2.64 0.4974s-1.415 1.18-1.749 2.039l-2.838 7.39c-0.134 0.3555-0.414 0.6362-0.77 0.7706l-7.39 2.838c-0.8588 0.3341-1.578 0.951-2.039 1.749-0.4612 0.7979-0.6366 1.729-0.4975 2.64l1.242 7.819c0.0575 0.3717-0.0424 0.7554-0.2828 1.053l-4.979 6.148c-0.578 0.719-0.8931 1.613-0.8931 2.536 0 0.922 0.3151 1.817 0.8931 2.535l4.978 6.153c0.2424 0.292 0.3454 0.677 0.2828 1.053l-1.242 7.819c-0.1394 0.911 0.036 1.843 0.4971 2.641 0.4612 0.798 1.181 1.415 2.04 1.749l7.391 2.831c0.356 0.141 0.636 0.42 0.771 0.776l2.837 7.383c0.332 0.86 0.949 1.581 1.748 2.042 0.798 0.462 1.73 0.637 2.641 0.496l7.82-1.236c0.371-0.058 0.756 0.041 1.054 0.282l6.146 4.979c0.718 0.58 1.613 0.897 2.536 0.897 0.924 0 1.819-0.317 2.537-0.897l6.151-4.978c0.145-0.119 0.315-0.207 0.496-0.257 0.182-0.049 0.372-0.06 0.558-0.032l7.82 1.243c0.911 0.14 1.842-0.035 2.64-0.496 0.799-0.462 1.416-1.181 1.749-2.041l2.832-7.391c0.14-0.353 0.421-0.632 0.776-0.77l7.384-2.833c0.859-0.333 1.579-0.949 2.041-1.747 0.461-0.798 0.637-1.73 0.497-2.641l-1.237-7.819c-0.059-0.376 0.044-0.758 0.282-1.053l4.979-6.147c0.578-0.719 0.893-1.615 0.893-2.538 0-0.924-0.315-1.819-0.893-2.539l-4.978-6.146c-0.119-0.1455-0.206-0.3148-0.255-0.4966s-0.058-0.3719-0.028-0.5577l1.238-7.818c0.14-0.9113-0.035-1.843-0.496-2.642-0.461-0.7984-1.182-1.415-2.041-1.748l-7.384-2.838c-0.176-0.0664-0.336-0.1693-0.469-0.3019-0.133-0.1327-0.237-0.2921-0.304-0.4677l-2.836-7.392c-0.335-0.8585-0.952-1.578-1.749-2.039-0.798-0.4612-1.729-0.6372-2.64-0.499l-7.82 1.242c-0.185 0.0288-0.375 0.0185-0.556-0.0302-0.182-0.0486-0.351-0.1347-0.497-0.2526l-6.148-4.978c-0.719-0.5788-1.615-0.8926-2.538-0.8887v-1e-3z" fill="url(#paint2_linear)"/>
  <path d="m128.4 138.7c16.73 0 30.3-13.56 30.3-30.3 0-16.73-13.56-30.3-30.3-30.3s-30.3 13.56-30.3 30.3c0 16.73 13.56 30.3 30.3 30.3z" fill="url(#paint3_linear)"/>
  <path d="m128.4 88.2 7.069 13.13 14.14 2.019-10.1 10.1 2.02 15.15-13.13-7.069-13.13 7.069 2.019-15.15-10.1-10.1 14.14-2.019 7.069-13.13z" fill="url(#paint4_linear)"/>
  <path d="m128.4 109.4 7.069-8.079-7.069-13.13v21.21zm21.21-6.06-21.21 6.06 11.11 4.039 10.1-10.1zm-8.079 25.25-13.13-19.19v12.12l13.13 7.069zm-24.24-15.15-2.019 15.15 13.13-19.19-11.11 4.039zm-10.1-10.1 21.21 6.06-7.069-8.079-14.14 2.019z" fill="url(#paint5_linear)"/>
  <path d="m155.6 17v44.23c0 8.91 7.259 15.93 16.17 15.93l44.23-0.0112v-2l-60.4-58.15z" fill="#282828" opacity=".25"/>
  <path d="m155.6 15v44.23c0 8.91 7.259 15.93 16.17 15.93l44.23-0.0112-60.4-60.15z" fill="url(#paint6_linear)"/>
  <defs>
    <linearGradient id="paint0_linear" x1="39" x2="39" y1="15" y2="240.2" gradientUnits="userSpaceOnUse">
      <stop stop-color="#fabd2f" offset="1e-7"/>
      <stop stop-color="#d65d0e" offset="1"/>
    </linearGradient>
    <linearGradient id="paint1_linear" x1="109.2" x2="109.2" y1="123.7" y2="188" gradientUnits="userSpaceOnUse">
      <stop stop-color="#d79921" offset="1e-7"/>
      <stop stop-color="#d65d0e" offset="1"/>
    </linearGradient>
    <linearGradient id="paint2_linear" x1="88" x2="88" y1="68" y2="148.8" gradientUnits="userSpaceOnUse">
      <stop stop-color="#fabd2f" offset="1e-7"/>
      <stop stop-color="#d79921" offset="1"/>
    </linearGradient>
    <linearGradient id="paint3_linear" x1="98.1" x2="98.1" y1="78.1" y2="138.7" gradientUnits="userSpaceOnUse">
      <stop stop-color="#fabd2f" offset="1e-7"/>
      <stop stop-color="#fabd2f" offset=".5"/>
      <stop stop-color="#fabd2f" offset="1"/>
    </linearGradient>
    <linearGradient id="paint4_linear" x1="107.2" x2="107.2" y1="88.2" y2="128.6" gradientUnits="userSpaceOnUse">
      <stop stop-color="#d79921" offset="1e-7"/>
      <stop stop-color="#d79921" offset="1"/>
    </linearGradient>
    <linearGradient id="paint5_linear" x1="107.2" x2="107.2" y1="88.2" y2="128.6" gradientUnits="userSpaceOnUse">
      <stop stop-color="#fabd2f" offset="1e-7"/>
      <stop stop-color="#fe8019" offset="1"/>
    </linearGradient>
    <linearGradient id="paint6_linear" x1="155.6" x2="155.6" y1="15" y2="75.16" gradientUnits="userSpaceOnUse">
      <stop stop-color="#fabd2f" offset="1e-7"/>
      <stop stop-color="#fe8019" offset=".5"/>
      <stop stop-color="#d65d0e" offset="1"/>
    </linearGradient>
  </defs>
</svg>

<svg width="256" height="256" viewBox="0 0 256 256" fill="none" xmlns="http://www.w3.org/2000/svg">
<g opacity="0.4" filter="url(#filter0_f)">
<path d="M55.0839 15.5636H155.608L216.009 75.7129L216.011 224.609C216.011 233.52 208.749 240.737 199.838 240.737H55.0838C46.1734 240.737 39 233.564 39 224.654V31.6474C39 22.737 46.1734 15.5636 55.0838 15.5636H55.0839Z" fill="#282828"/>
</g>
<path d="M55.0839 15H155.608L216.009 75.1493L216.011 224.045C216.011 232.956 208.749 240.174 199.838 240.174H55.0838C46.1734 240.174 39 233 39 224.09V31.0838C39 22.1734 46.1734 15 55.0838 15H55.0839Z" fill="#ebdbb2"/>
<path fill-rule="evenodd" clip-rule="evenodd" d="M155.609 22.9787H55.0839C50.58 22.9787 46.9787 26.5799 46.9787 31.0838V224.09C46.9787 228.594 50.5799 232.195 55.0838 232.195H199.838C204.371 232.195 208.032 228.521 208.032 224.046V75.1493L155.609 22.9787ZM155.608 15H55.0839C46.1735 15 39 22.1734 39 31.0838V224.09C39 233 46.1734 240.174 55.0838 240.174H199.838C208.749 240.174 216.011 232.956 216.011 224.045L216.009 75.1493L155.608 15Z" fill="url(#paint0_linear)"/>
<path d="M109.208 123.716H149.602V186.328C149.602 188 148.548 188.502 147.249 187.449L129.171 172.784L111.538 187.423C110.252 188.491 109.208 188 109.208 186.328V123.716Z" fill="url(#paint1_linear)"/>
<path d="M128.396 68.0001C127.473 67.9939 126.576 68.3092 125.859 68.8918L119.709 73.8684C119.564 73.9877 119.395 74.0746 119.213 74.1234C119.031 74.1721 118.841 74.1816 118.656 74.1512L110.836 72.909C109.925 72.7698 108.994 72.9452 108.196 73.4064C107.398 73.8676 106.781 74.5869 106.447 75.4458L103.609 82.836C103.475 83.1915 103.195 83.4722 102.839 83.6066L95.4491 86.4443C94.5903 86.7784 93.871 87.3953 93.4098 88.1931C92.9486 88.991 92.7732 89.9222 92.9123 90.8331L94.1545 98.6525C94.212 99.0242 94.1121 99.4079 93.8717 99.7058L88.8931 105.854C88.3151 106.573 88 107.467 88 108.39C88 109.312 88.3151 110.207 88.8931 110.925L93.8707 117.078C94.1131 117.37 94.2161 117.755 94.1535 118.131L92.9113 125.95C92.7719 126.861 92.9473 127.793 93.4084 128.591C93.8696 129.389 94.5891 130.006 95.4481 130.34L102.839 133.171C103.195 133.312 103.475 133.591 103.61 133.947L106.447 141.33C106.779 142.19 107.396 142.911 108.195 143.372C108.993 143.834 109.925 144.009 110.836 143.868L118.656 142.632C119.027 142.574 119.412 142.673 119.71 142.914L125.856 147.893C126.574 148.473 127.469 148.79 128.392 148.79C129.316 148.79 130.211 148.473 130.929 147.893L137.08 142.915C137.225 142.796 137.395 142.708 137.576 142.658C137.758 142.609 137.948 142.598 138.134 142.626L145.954 143.869C146.865 144.009 147.796 143.834 148.594 143.373C149.393 142.911 150.01 142.192 150.343 141.332L153.175 133.941C153.315 133.588 153.596 133.309 153.951 133.171L161.335 130.338C162.194 130.005 162.914 129.389 163.376 128.591C163.837 127.793 164.013 126.861 163.873 125.95L162.636 118.131C162.577 117.755 162.68 117.373 162.918 117.078L167.897 110.931C168.475 110.212 168.79 109.316 168.79 108.393C168.79 107.469 168.475 106.574 167.897 105.854L162.919 99.7078C162.8 99.5623 162.713 99.393 162.664 99.2112C162.615 99.0294 162.606 98.8393 162.636 98.6535L163.874 90.8352C164.014 89.9239 163.839 88.992 163.378 88.1937C162.917 87.3953 162.196 86.7785 161.337 86.4453L153.953 83.6076C153.777 83.5412 153.617 83.4383 153.484 83.3057C153.351 83.173 153.247 83.0136 153.18 82.838L150.344 75.4458C150.009 74.5873 149.392 73.8683 148.595 73.407C147.797 72.9458 146.866 72.7698 145.955 72.908L138.135 74.1502C137.95 74.179 137.76 74.1687 137.579 74.12C137.397 74.0714 137.228 73.9853 137.082 73.8674L130.934 68.8898C130.215 68.311 129.319 67.9972 128.396 68.0011V68.0001Z" fill="url(#paint2_linear)"/>
<path d="M128.395 138.691C145.127 138.691 158.691 125.127 158.691 108.395C158.691 91.6627 145.127 78.0987 128.395 78.0987C111.663 78.0987 98.099 91.6627 98.099 108.395C98.099 125.127 111.663 138.691 128.395 138.691Z" fill="url(#paint3_linear)"/>
<path d="M128.395 88.1974L135.464 101.326L149.602 103.345L139.503 113.444L141.523 128.592L128.395 121.523L115.267 128.592L117.286 113.444L107.188 103.345L121.326 101.326L128.395 88.1974Z" fill="url(#paint4_linear)"/>
<path d="M128.395 109.405L135.464 101.326L128.395 88.1974V109.405ZM149.602 103.345L128.395 109.405L139.503 113.444L149.602 103.345ZM141.523 128.592L128.395 109.405V121.523L141.523 128.592ZM117.286 113.444L115.267 128.592L128.395 109.405L117.286 113.444ZM107.188 103.345L128.395 109.405L121.326 101.326L107.188 103.345Z" fill="url(#paint5_linear)"/>
<path opacity="0.25" d="M155.608 17V61.2306C155.608 70.141 162.867 77.1605 171.777 77.1605L216.009 77.1493V75.1493L155.608 17Z" fill="#282828"/>
<path d="M155.608 15V59.2306C155.608 68.141 162.867 75.1605 171.777 75.1605L216.009 75.1493L155.608 15Z" fill="url(#paint6_linear)"/>
<defs>
<filter id="filter0_f" x="23.8778" y="0.441412" width="207.255" height="255.418" filterUnits="userSpaceOnUse" color-interpolation-filters="sRGB">
<feFlood flood-opacity="0" result="BackgroundImageFix"/>
<feBlend mode="normal" in="SourceGraphic" in2="BackgroundImageFix" result="shape"/>
<feGaussianBlur stdDeviation="7.5611" result="effect1_foregroundBlur"/>
</filter>
<linearGradient id="paint0_linear" x1="39" y1="15" x2="39" y2="240.174" gradientUnits="userSpaceOnUse">
<stop offset="1e-07" stop-color="#fabd2f"/>
<stop offset="1" stop-color="#d65d0e"/>
</linearGradient>
<linearGradient id="paint1_linear" x1="109.208" y1="123.716" x2="109.208" y2="188" gradientUnits="userSpaceOnUse">
<stop offset="1e-07" stop-color="#d79921"/>
<stop offset="1" stop-color="#d65d0e"/>
</linearGradient>
<linearGradient id="paint2_linear" x1="88" y1="68" x2="88" y2="148.79" gradientUnits="userSpaceOnUse">
<stop offset="1e-07" stop-color="#fabd2f"/>
<stop offset="1" stop-color="#d79921"/>
</linearGradient>
<linearGradient id="paint3_linear" x1="98.099" y1="78.0987" x2="98.099" y2="138.691" gradientUnits="userSpaceOnUse">
<stop offset="1e-07" stop-color="#fabd2f"/>
<stop offset="0.5" stop-color="#fabd2f"/>
<stop offset="1" stop-color="#fabd2f"/>
</linearGradient>
<linearGradient id="paint4_linear" x1="107.188" y1="88.1974" x2="107.188" y2="128.592" gradientUnits="userSpaceOnUse">
<stop offset="1e-07" stop-color="#d79921"/>
<stop offset="1" stop-color="#d79921"/>
</linearGradient>
<linearGradient id="paint5_linear" x1="107.188" y1="88.1974" x2="107.188" y2="128.592" gradientUnits="userSpaceOnUse">
<stop offset="1e-07" stop-color="#fabd2f"/>
<stop offset="1" stop-color="#fe8019"/>
</linearGradient>
<linearGradient id="paint6_linear" x1="155.608" y1="15" x2="155.608" y2="75.1605" gradientUnits="userSpaceOnUse">
<stop offset="1e-07" stop-color="#fabd2f"/>
<stop offset="0.5" stop-color="#fe8019"/>
<stop offset="1" stop-color="#d65d0e"/>
</linearGradient>
</defs>
</svg>
